nintendo/_inc/system.svg

<svg xmlns="http://www.w3.org/2000/svg"><g fill="#fff"><path d="m59.52 38.994h21.681l29.991 48.525-.015-48.525h21.513v69.585h-21.483l-30.15-48.525v48.525h-21.546z"/><path d="m249.642 46.149h20.94v9.363h11.331v6.885h-11.331l.015 46.182h-20.955l.009-46.182h-11.379v-6.867l11.388-.009z"/><path d="m144.666 62.301 20.922.009v46.269h-20.922z"/><path d="m144.618 38.979h20.97v14.223h-20.97z"/><path d="m519.762 85.074s-.006 6.996-.006 9.801c0 7.377-4.359 10.422-8.55 10.422-4.2 0-8.574-3.045-8.574-10.422 0-2.805.009-9.978.009-9.978s.015-6.843.015-9.648c0-7.347 4.383-10.365 8.55-10.365 4.176 0 8.55 3.018 8.55 10.365 0 2.805-.009 7.992.015 9.849zm-8.406-25.929c-16.89 0-30.579 11.634-30.579 25.983 0 14.352 13.695 25.986 30.579 25.986 16.893 0 30.582-11.634 30.582-25.986 0-14.349-13.689-25.983-30.582-25.983z"/><path d="m453.312 38.994h20.652v69.585h-20.685s-.009-2.247-.009-2.676c-8.007 5.028-17.043 5.019-24.078 1.737-1.89-.879-14.31-6.837-14.31-22.941 0-12.216 11.52-25.554 26.604-24.231 4.965.438 8.493 2.247 11.841 4.128-.015-10.71-.015-25.602-.015-25.602zm.15 46.215s0-5.799 0-8.271c0-7.155-4.941-8.979-8.19-8.979-3.333 0-8.208 1.824-8.208 8.979 0 2.376.009 8.247.009 8.247s-.009 5.769-.009 8.232c0 7.146 4.875 9.018 8.199 9.018 3.258 0 8.208-1.872 8.208-9.018 0-2.973-.009-8.208-.009-8.208z"/><path d="m214.575 60.165c7.824-.222 23.697 4.902 23.586 23.22-.015 3.249-.009 25.179-.009 25.179h-20.787s0-27.498 0-30.39c0-4.032-3.858-8.517-9.561-8.517-5.697 0-9.936 4.485-9.936 8.517 0 1.977.024 30.39.024 30.39h-20.772l-.009-46.272 20.787-.015s-.024 3.72 0 4.869c4.002-3.816 9.762-6.78 16.677-6.981z"/><path d="m384.627 60.165c7.824-.222 23.697 4.902 23.586 23.22-.018 3.249-.009 25.179-.009 25.179h-20.787s0-27.498 0-30.39c0-4.032-3.858-8.517-9.564-8.517-5.697 0-9.936 4.485-9.936 8.517 0 1.977.024 30.39.024 30.39h-20.772l.018-46.272 20.763-.015s-.024 3.72 0 4.869c3.999-3.816 9.768-6.78 16.677-6.981z"/><path d="m301.401 78.435c-.03-4.053.057-6.762 1.389-9.075 1.632-2.853 4.635-4.206 7.362-4.221h-.009c2.724.015 5.73 1.368 7.362 4.221 1.332 2.319 1.386 5.028 1.356 9.084zm17.388 13.953s.015.207.015 2.805c0 8.463-5.568 10.341-8.661 10.341-3.09 0-8.757-1.878-8.757-10.341 0-2.535.015-9.555.015-9.555s39.42.018 39.42-.006c0-14.352-13.857-26.238-30.876-26.238-17.022 0-30.813 11.631-30.813 25.983 0 14.349 13.791 25.974 30.813 25.974 14.118 0 26.046-8.055 29.688-18.978z"/><path d="m78.477 147.813c-47.043-.015-78.477-33.354-78.477-73.776 0-40.419 31.506-74.139 78.405-74.037h443.19c46.899-.102 78.405 33.618 78.405 74.037 0 40.422-31.434 73.761-78.477 73.776zm.141-129.63c-37.242.072-60.102 24.963-60.102 55.761 0 30.786 22.719 55.884 60.102 55.749h442.764c37.383.129 60.108-24.963 60.108-55.749 0-30.789-22.86-55.68-60.102-55.752z"/></g></svg>

<?xml version="1.0" encoding="utf-8"?>
<svg version="1.1" xmlns="http://www.w3.org/2000/svg">
  <g>
    <polygon class="logo" points="59.52 38.994 81.201 38.994 111.192 87.519 111.177 38.994 132.69 38.994 132.69 108.579 111.207 108.579 81.057 60.054 81.057 108.579 59.511 108.579" style="fill: rgb(255, 255, 255);"/>
    <polygon class="logo" points="249.642 46.149 270.582 46.149 270.582 55.512 281.913 55.512 281.913 62.397 270.582 62.397 270.597 108.579 249.642 108.579 249.651 62.397 238.272 62.397 238.272 55.53 249.66 55.521" style="fill: rgb(255, 255, 255);"/>
    <polygon class="logo" points="144.666 62.301 165.588 62.31 165.588 108.579 144.666 108.579" style="fill: rgb(255, 255, 255);"/>
    <polygon class="logo" points="144.618 38.979 165.588 38.979 165.588 53.202 144.618 53.202" style="fill: rgb(255, 255, 255);"/>
    <path class="logo" d="M 519.762 85.074 C 519.762 85.074 519.756 92.07 519.756 94.875 C 519.756 102.252 515.397 105.297 511.206 105.297 C 507.006 105.297 502.632 102.252 502.632 94.875 C 502.632 92.07 502.641 84.897 502.641 84.897 C 502.641 84.897 502.656 78.054 502.656 75.249 C 502.656 67.902 507.039 64.884 511.206 64.884 C 515.382 64.884 519.756 67.902 519.756 75.249 C 519.756 78.054 519.747 83.241 519.771 85.098 L 519.762 85.074 L 519.762 85.074 Z M 511.356 59.145 C 494.466 59.145 480.777 70.779 480.777 85.128 C 480.777 99.48 494.472 111.114 511.356 111.114 C 528.249 111.114 541.938 99.48 541.938 85.128 C 541.938 70.779 528.249 59.145 511.356 59.145 L 511.356 59.145 Z" style="fill: rgb(255, 255, 255);"/>
    <path class="logo" d="M 453.312 38.994 L 473.964 38.994 L 473.964 108.579 L 453.279 108.579 C 453.279 108.579 453.27 106.332 453.27 105.903 C 445.263 110.931 436.227 110.922 429.192 107.64 C 427.302 106.761 414.882 100.803 414.882 84.699 C 414.882 72.483 426.402 59.145 441.486 60.468 C 446.451 60.906 449.979 62.715 453.327 64.596 C 453.312 53.886 453.312 38.994 453.312 38.994 L 453.312 38.994 Z M 453.462 85.209 C 453.462 85.209 453.462 79.41 453.462 76.938 C 453.462 69.783 448.521 67.959 445.272 67.959 C 441.939 67.959 437.064 69.783 437.064 76.938 C 437.064 79.314 437.073 85.185 437.073 85.185 C 437.073 85.185 437.064 90.954 437.064 93.417 C 437.064 100.563 441.939 102.435 445.263 102.435 C 448.521 102.435 453.471 100.563 453.471 93.417 C 453.471 90.444 453.462 85.209 453.462 85.209 L 453.462 85.209 Z" style="fill: rgb(255, 255, 255);"/>
    <path class="logo" d="M 214.575 60.165 C 222.399 59.943 238.272 65.067 238.161 83.385 C 238.146 86.634 238.152 108.564 238.152 108.564 L 217.365 108.564 C 217.365 108.564 217.365 81.066 217.365 78.174 C 217.365 74.142 213.507 69.657 207.804 69.657 C 202.107 69.657 197.868 74.142 197.868 78.174 C 197.868 80.151 197.892 108.564 197.892 108.564 L 177.12 108.564 L 177.111 62.292 L 197.898 62.277 C 197.898 62.277 197.874 65.997 197.898 67.146 C 201.9 63.33 207.66 60.366 214.575 60.165 L 214.575 60.165 Z" style="fill: rgb(255, 255, 255);"/>
    <path class="logo" d="M 384.627 60.165 C 392.451 59.943 408.324 65.067 408.213 83.385 C 408.195 86.634 408.204 108.564 408.204 108.564 L 387.417 108.564 C 387.417 108.564 387.417 81.066 387.417 78.174 C 387.417 74.142 383.559 69.657 377.853 69.657 C 372.156 69.657 367.917 74.142 367.917 78.174 C 367.917 80.151 367.941 108.564 367.941 108.564 L 347.169 108.564 L 347.187 62.292 L 367.95 62.277 C 367.95 62.277 367.926 65.997 367.95 67.146 C 371.949 63.33 377.718 60.366 384.627 60.165 L 384.627 60.165 Z" style="fill: rgb(255, 255, 255);"/>
    <path class="logo" d="M 301.401 78.435 C 301.371 74.382 301.458 71.673 302.79 69.36 C 304.422 66.507 307.425 65.154 310.152 65.139 L 310.143 65.139 C 312.867 65.154 315.873 66.507 317.505 69.36 C 318.837 71.679 318.891 74.388 318.861 78.444 L 301.401 78.435 L 301.401 78.435 Z M 318.789 92.388 C 318.789 92.388 318.804 92.595 318.804 95.193 C 318.804 103.656 313.236 105.534 310.143 105.534 C 307.053 105.534 301.386 103.656 301.386 95.193 C 301.386 92.658 301.401 85.638 301.401 85.638 C 301.401 85.638 340.821 85.656 340.821 85.632 C 340.821 71.28 326.964 59.394 309.945 59.394 C 292.923 59.394 279.132 71.025 279.132 85.377 C 279.132 99.726 292.923 111.351 309.945 111.351 C 324.063 111.351 335.991 103.296 339.633 92.373 L 318.789 92.388 L 318.789 92.388 Z" style="fill: rgb(255, 255, 255);"/>
    <path class="logo" d="M 78.477 147.813 C 31.434 147.798 0 114.459 0 74.037 L 0 74.037 C 0 33.618 31.506 -0.102 78.405 0 L 521.595 0 C 568.494 -0.102 600 33.618 600 74.037 L 600 74.037 C 600 114.459 568.566 147.798 521.523 147.813 L 78.477 147.813 L 78.477 147.813 Z M 78.618 18.183 C 41.376 18.255 18.516 43.146 18.516 73.944 L 18.516 73.944 C 18.516 104.73 41.235 129.828 78.618 129.693 L 521.382 129.693 C 558.765 129.822 581.49 104.73 581.49 73.944 L 581.49 73.944 C 581.49 43.155 558.63 18.264 521.388 18.192 L 78.618 18.183 L 78.618 18.183 Z" style="fill: rgb(255, 255, 255);"/>
  </g>
</svg>
